Sources/FrostedUI/Resources/Icons.xcassets/participants20.imageset/participants-20.svg

<svg width="20" height="20" viewBox="0 0 20 20" fill="none" xmlns="http://www.w3.org/2000/svg" data-fui-icon="true">
  <path
    d="M8.75024 11.4375C10.6994 11.4375 12.1701 11.8423 13.2717 12.4834C14.3762 13.1263 15.066 13.9814 15.4905 14.8066C16.1512 16.0917 15.3041 17.4246 14.1106 17.7773C12.8822 18.1403 10.9771 18.5625 8.75024 18.5625C6.5234 18.5625 4.61828 18.1403 3.38989 17.7773C2.19625 17.4246 1.34923 16.0918 2.01001 14.8066C2.43446 13.9814 3.1242 13.1263 4.22876 12.4834C5.33037 11.8423 6.80111 11.4375 8.75024 11.4375ZM8.75024 12.9375C7.01021 12.9375 5.81214 13.2982 4.98364 13.7803C4.1582 14.2607 3.65532 14.887 3.34399 15.4922C3.26065 15.6542 3.26768 15.8159 3.34302 15.9648C3.42291 16.1228 3.58575 16.2712 3.8147 16.3389C4.94872 16.6739 6.70664 17.0625 8.75024 17.0625C10.7939 17.0625 12.5518 16.6739 13.6858 16.3389C13.9147 16.2711 14.0776 16.1228 14.1575 15.9648C14.2328 15.8159 14.2398 15.6542 14.1565 15.4922C13.8452 14.887 13.3422 14.2607 12.5168 13.7803C11.6884 13.2981 10.4903 12.9375 8.75024 12.9375ZM13.6633 9.7627C13.7943 9.36977 14.2196 9.15711 14.6125 9.28809C16.5589 9.93687 17.9606 10.6243 19.3362 12.3438C19.5948 12.6672 19.5423 13.1397 19.219 13.3984C18.8956 13.6572 18.4231 13.6046 18.1643 13.2812C17.0399 11.8758 15.9415 11.3131 14.1379 10.7119C13.745 10.5809 13.5323 10.1557 13.6633 9.7627ZM8.75024 1.4375C11.0629 1.43759 12.9377 3.31236 12.9377 5.625C12.9377 7.93764 11.0629 9.81241 8.75024 9.8125C6.43755 9.8125 4.56274 7.93769 4.56274 5.625C4.56274 3.31231 6.43755 1.4375 8.75024 1.4375ZM8.75024 2.9375C7.26598 2.9375 6.06274 4.14073 6.06274 5.625C6.06274 7.10927 7.26598 8.3125 8.75024 8.3125C10.2344 8.31241 11.4377 7.10921 11.4377 5.625C11.4377 4.14079 10.2344 2.93759 8.75024 2.9375ZM13.4377 0.1875C15.7504 0.187592 17.6252 2.06236 17.6252 4.375C17.6252 5.27042 17.3434 6.10275 16.8635 6.78418C16.625 7.12259 16.1572 7.20318 15.8186 6.96484C15.4799 6.72635 15.3985 6.25858 15.637 5.91992C15.9446 5.48305 16.1252 4.95123 16.1252 4.375C16.1252 2.89079 14.9219 1.68759 13.4377 1.6875C13.0235 1.6875 12.6877 1.35171 12.6877 0.9375C12.6877 0.523286 13.0235 0.1875 13.4377 0.1875Z"
    fill="currentColor"
  />
</svg>

<svg xmlns="http://www.w3.org/2000/svg" width="20" height="20" fill="none" data-fui-icon="true" viewBox="0 0 20 20"><path fill="currentColor" d="M8.75 11.438c1.95 0 3.42.404 4.522 1.045a5.65 5.65 0 0 1 2.219 2.324c.66 1.285-.187 2.618-1.38 2.97a19.2 19.2 0 0 1-5.36.785c-2.228 0-4.133-.422-5.361-.785-1.194-.352-2.04-1.685-1.38-2.97a5.65 5.65 0 0 1 2.219-2.324c1.101-.64 2.572-1.046 4.521-1.046m0 1.5c-1.74 0-2.938.36-3.766.842a4.15 4.15 0 0 0-1.64 1.712.5.5 0 0 0-.001.473c.08.158.243.306.472.374 1.134.335 2.892.724 4.935.724 2.044 0 3.802-.39 4.936-.724a.77.77 0 0 0 .472-.374.5.5 0 0 0-.002-.473 4.15 4.15 0 0 0-1.64-1.712c-.828-.482-2.026-.842-3.766-.842m4.913-3.175a.75.75 0 0 1 .95-.475c1.946.649 3.348 1.336 4.723 3.056a.75.75 0 0 1-1.172.937c-1.124-1.405-2.223-1.968-4.026-2.57a.75.75 0 0 1-.475-.948M8.75 1.438a4.188 4.188 0 1 1 0 8.375 4.188 4.188 0 0 1 0-8.375m0 1.5a2.688 2.688 0 1 0 0 5.375 2.688 2.688 0 0 0 0-5.376m4.688-2.75a4.188 4.188 0 0 1 3.425 6.596.75.75 0 0 1-1.226-.864 2.688 2.688 0 0 0-2.2-4.232.75.75 0 0 1 0-1.5"/></svg>
